X: 3097
T: Bear Dance, The
R: polka
M: 2/4
K: Aminor
|:eA AA|eA AA/B/|cc Bc|d2 cd|
eA AA|eA AA/B/|cc B/A/G|A2 Az:|
|:A/B/c A/B/c|dG GG|A/B/c A/B/c|d2 cd|
ee dd|cc B>B|Ac B/A/G|A2 Az:|

